X: 119
T: Avuçlarımda Hâlâ Sıcaklığın Var
C: Yusuf Nalkesen
O: Turkey
F: http://compmusic.upf.edu/node/140
N: kurdilihicazkar--sarki--duyek--avuclarimda_hala--yusuf_nalkesen
N: makam= kurdilihicazkar
N: form= sarki
N: usul= duyek = 8/4
M: 8/4
L: 1/16
K: C _B _e _A 
Q: 1/4=132
%%MIDI tuningsystem comma53
f2 g4 fe fg f2 g4  | z2 de d2 g2 fe dc d4  | \
w:  A vuç la *  rım *  *  da   |  hâ *  *  *  lâ   | 
d2 e4 d2 e2 f2 g4  | 
w:  sı cak lı ğın   | 
g2 a4 g2 f2 g2 a4  | g2 b4 ag f2 g2 b2 ag  | \
w:  sı cak lı ğın   |  sı cak lı *  ğın   | 
z2 g2 f2 e2 d2 c2 B2 AG  | 
w:  var   | 
f2 g14  | g2 ag f2 gf e2 fe d2 ec  | \
w:  i nan    |  SAZ  | 
g2 g4 fe dc BA G4  | 
w:   | 
f2 g4 fe fg f2 g4  | z2 de d2 g2 fe dc d4  | \
w:  A vuç la *  rım *  *  da   |  hâ *  *  *  lâ   | 
d2 e4 d2 e2 f2 g4  | 
w:  sı cak lı ğın   | 
g2 a4 g2 f2 g2 a4  | g2 b4 ag f2 g2 b2 ag  | \
w:  sı cak lı ğın   |  sı cak lı *  ğın   | 
z2 g2 f2 e2 d2 c2 B2 AG  | 
w:  var   | 
f2 g14  | g2 ag f2 gf e2 fe d2 ec  | \
w:  i nan    |  SAZ  | 
g2 g4 f2 b2 ag g4  | 
w:   | 
g2 a4 g2 b2 ag a2 g2  | g2 b2 a2 g2 f2 e2 d4  | \
w:  U nut *  tum   |  de se  *  di lim   | 
d2 g6 g8  | g2 a6 a8  | 
w:  ya lan   |  ya lan   | 
g2 b2 a2 g2 f2 e2 d2 c2  | z2 e2 d2 c2 d2 cB A2 AG  | G16  | \
w:  ya lan   |  bil *  *  lâ *  *  hi  ya  |  lan    | 
g2 a4 g2 b2 ag a2 g2  | 
w:  U nut *  tum   | 
g2 b2 a2 g2 f2 e2 d4  | d2 g6 g8  | g2 a6 a8  | \
w:  de se  *  di lim   |  ya lan   |  ya lan   | 
g2 b2 a2 g2 f2 e2 d2 c2  | 
w:  ya lan   | 
z2 e2 d2 c2 d2 cB A2 AG  | G16  | g2 ag f2 gf e2 fe d2 ec  | 
w:  bil *  *  lâ *  *  hi  ya  |  lan    |  SAZ  | 
d2 d4 c2 f2 ed d4  | z2 c4 d2 d4 d2 c2  | \
w:   |  Has re tin dir   | 
g2 g4 f2 e2 dc d4  | z2 e4 d2 f2 ed e4  | 
w:  i çim *  de   |  hep  a lev   | 
z2 d4 c2 d2 cB c4  | z2 g4 a2 g2 f2 e2 d2  | \
w:  hep  a lev   |  hep  a lev  *  *  a  | 
f2 ed e2 f2 g8  | g2 ag f2 gf e2 fe d2 ec  | 
w:  lev  *  *  *  ya nan    |  SAZ  | 
d2 d4 c2 f2 ed d4  | z2 c4 d2 d4 d2 c2  | \
w:   |  Has re tin dir   | 
g2 g4 f2 e2 dc d4  | z2 e4 d2 f2 ed e4  | 
w:  i çim *  de   |  hep  a lev   | 
z2 d4 c2 d2 cB c4  | z2 g4 a2 g2 f2 e2 d2  | \
w:  hep  a lev   |  hep  a lev  *  *  a  | 
f2 ed e2 f2 g8  | g2 ag f2 gf e2 fe d2 ec  | 
w:  lev  *  *  *  ya nan    |  SAZ  | 
g2 g4 f2 b2 ag g4  | g2 a4 g2 b2 ag a2 g2  | \
w:   |  U nut *  tum   | 
g2 b2 a2 g2 f2 e2 d4  | 
w:  de se  *  di lim   | 
d2 g6 g8  | g2 a6 a8  | g2 b2 a2 g2 f2 e2 d2 c2  | \
w:  ya lan   |  ya lan   |  ya lan   | 
z2 e2 d2 c2 d2 cB A2 AG  | 
w:  bil *  *  lâ *  *  hi  ya  | 
G16  | g2 a4 g2 b2 ag a2 g2  | g2 b2 a2 g2 f2 e2 d4  | \
w:  lan    |  U nut *  tum   |  de se  *  di lim   | 
d2 g6 g8  | g2 a6 a8  | 
w:  ya lan   |  ya lan   | 
g2 b2 a2 g2 f2 e2 d2 c2  | z2 e2 d2 c2 d2 cB A2 AG  | G16  | |


